src/Assests/SVG/GR.svg

<svg width="46" height="24" viewBox="0 0 46 24" fill="none" xmlns="http://www.w3.org/2000/svg">
<path d="M16.792 19.352V15.384C16.792 15.0853 16.7707 14.8507 16.728 14.68C16.6853 14.5093 16.5467 14.3493 16.312 14.2C16.0773 14.0507 15.7253 13.976 15.256 13.976H14.104V13.08H21.592V13.976H21.08C20.44 13.976 20.024 14.104 19.832 14.36C19.64 14.5947 19.544 14.936 19.544 15.384V18.648C16.472 21.976 13.1227 23.64 9.496 23.64C7.064 23.64 4.89867 22.5627 3 20.408C1.10133 18.2533 0.152 15.832 0.152 13.144C0.152 9.66667 1.432 6.616 3.992 3.992C6.57333 1.34667 9.58133 0.0239983 13.016 0.0239983C14.296 0.0239983 16.024 0.386665 18.2 1.112L18.392 5.528H17.24C17.24 3.608 15.3627 2.648 11.608 2.648C9.02667 2.648 6.82933 3.36267 5.016 4.792C3.224 6.2 2.328 8.216 2.328 10.84C2.328 12.312 2.552 13.656 3 14.872C3.46933 16.088 4.056 17.08 4.76 17.848C5.464 18.616 6.25333 19.2667 7.128 19.8C8.74933 20.7387 10.3173 21.208 11.832 21.208C13.3467 21.208 15 20.5893 16.792 19.352ZM30.113 0.599998L36.193 0.279999C38.0703 0.279999 39.6063 0.674665 40.801 1.464C41.9957 2.25333 42.593 3.33067 42.593 4.696C42.593 6.59467 42.081 8.14133 41.057 9.336C40.033 10.5307 38.7743 11.4373 37.281 12.056L42.465 19.864C42.6783 20.2053 43.0837 20.664 43.681 21.24C44.2997 21.816 44.8543 22.104 45.345 22.104H45.921V23H41.185C41.249 23 41.0463 22.68 40.577 22.04C40.1077 21.4 39.841 21.016 39.777 20.888L34.465 12.696C34.2517 12.7387 33.825 12.76 33.185 12.76C32.545 12.76 32.033 12.7387 31.649 12.696L31.393 11.416C31.6917 11.4587 32.3317 11.48 33.313 11.48C34.2943 11.48 35.2757 11.352 36.257 11.096C37.2383 10.84 38.1023 10.36 38.849 9.656C39.5957 8.93067 39.969 8.00267 39.969 6.872C39.969 3.71467 37.9423 2.136 33.889 2.136L30.561 2.264V20.632C30.561 20.952 30.5823 21.1973 30.625 21.368C30.6677 21.5387 30.8063 21.7093 31.041 21.88C31.2757 22.0293 31.6277 22.104 32.097 22.104H33.313V23H25.185V22.104H26.209C26.6783 22.104 27.0303 22.0293 27.265 21.88C27.4997 21.7093 27.6383 21.5387 27.681 21.368C27.7237 21.1973 27.745 20.952 27.745 20.632V2.968C27.745 2.47733 27.6383 2.12533 27.425 1.912C27.233 1.67733 26.8277 1.56 26.209 1.56H25.185V0.599998H30.113Z" fill="white"/>
</svg>

<svg width="46" height="24" viewBox="0 0 46 24" fill="none" xmlns="http://www.w3.org/2000/svg"><path d="M16.792 19.352v-3.968c0-.2987-.0213-.5333-.064-.704-.0427-.1707-.1813-.3307-.416-.48s-.5867-.224-1.056-.224h-1.152v-.896h7.488v.896h-.512c-.64 0-1.056.128-1.248.384-.192.2347-.288.576-.288 1.024v3.264c-3.072 3.328-6.4213 4.992-10.048 4.992-2.432 0-4.5973-1.0773-6.496-3.232C1.1013 18.2533.152 15.832.152 13.144c0-3.4773 1.28-6.528 3.84-9.152C6.5733 1.3467 9.5813.024 13.016.024c1.28 0 3.008.3627 5.184 1.088l.192 4.416H17.24c0-1.92-1.8773-2.88-5.632-2.88-2.5813 0-4.7787.7147-6.592 2.144C3.224 6.2 2.328 8.216 2.328 10.84c0 1.472.224 2.816.672 4.032.4693 1.216 1.056 2.208 1.76 2.976.704.768 1.4933 1.4187 2.368 1.952 1.6213.9387 3.1893 1.408 4.704 1.408s3.168-.6187 4.96-1.856ZM30.113.6l6.08-.32c1.8773 0 3.4133.3947 4.608 1.184 1.1947.7893 1.792 1.8667 1.792 3.232 0 1.8987-.512 3.4453-1.536 4.64-1.024 1.1947-2.2827 2.1013-3.776 2.72l5.184 7.808c.2133.3413.6187.8 1.216 1.376.6187.576 1.1733.864 1.664.864h.576V23h-4.736c.064 0-.1387-.32-.608-.96-.4693-.64-.736-1.024-.8-1.152l-5.312-8.192c-.2133.0427-.64.064-1.28.064s-1.152-.0213-1.536-.064l-.256-1.28c.2987.0427.9387.064 1.92.064s1.9627-.128 2.944-.384c.9813-.256 1.8453-.736 2.592-1.44.7467-.7253 1.12-1.6533 1.12-2.784 0-3.1573-2.0267-4.736-6.08-4.736l-3.328.128v18.368c0 .32.0213.5653.064.736.0427.1707.1813.3413.416.512.2347.1493.5867.224 1.056.224h1.216V23h-8.128v-.896h1.024c.4693 0 .8213-.0747 1.056-.224.2347-.1707.3733-.3413.416-.512.0427-.1707.064-.416.064-.736V2.968c0-.4907-.1067-.8427-.32-1.056-.192-.2347-.5973-.352-1.216-.352h-1.024V.6h4.928Z" fill="#fff"/></svg>
